X: 31268
T: Paddy Handly's Goose
R: reel
M: 4/4
K: Gmajor
GEDE GABd|e2 de gedB|e2 de gedB|A2 (AG) AcBA|
GEDE GABd|e2 de gedB|egde BdAB|G2G2 G2 z2:|
|:(3BcB AB (3BcB GB|(3cec Ac (3cec Ac|(3BcB GB (3BcB GB|AGEG A2 (Ac)|
(3BcB GB (3BcB GB|(3cec Ac (3cec Ac|Bdef gage|dBAB G2G2:|

